packages/foundations/assets/icons/functional/images/social/heart_32.svg

<svg width="32" height="32" viewBox="0 0 32 32" fill="none" xmlns="http://www.w3.org/2000/svg">
<g clip-path="url(#clip0_187_406)">
<path fill-rule="evenodd" clip-rule="evenodd" d="M22.5938 4.125C26.6562 4.125 30 7.4062 30 11.5C30 13.375 29.3438 15.2812 27.7812 16.7812L16.6875 27.5938C16.5 27.7812 16.2188 27.875 15.9688 27.875C15.7188 27.875 15.4688 27.7812 15.2812 27.5938L4.1562 16.7812C2.6875 15.375 2 13.4375 2 11.5625C2 7.4062 5.375 4.125 9.375 4.125C11.2812 4.125 13.1875 4.875 14.625 6.3125L15.9688 7.6562L17.3125 6.3125C18.75 4.875 20.6562 4.125 22.5938 4.125ZM22.5312 6.1562C21.1562 6.1562 19.8125 6.6562 18.75 7.7188L16.6875 9.7812C16.5 9.9688 16.2188 10.0625 15.9688 10.0625C15.7188 10.0625 15.4688 9.9688 15.2812 9.7812L13.2188 7.7188C12.1875 6.6875 10.8125 6.1562 9.375 6.1562C6.4062 6.1562 4 8.5625 4 11.5938C4 12.9688 4.5 14.3438 5.5625 15.375L15.9688 25.4688L26.375 15.375C27.4688 14.3125 27.9688 12.9375 27.9688 11.5625C27.9688 8.5312 25.5 6.1562 22.5312 6.1562Z" fill="#1A1C1F"/>
</g>
<defs>
<clipPath id="clip0_187_406">
<rect width="32" height="32" fill="white"/>
</clipPath>
</defs>
</svg>

<svg xmlns="http://www.w3.org/2000/svg" width="32" height="32" fill="none"><g clip-path="url(#a)"><path fill="#1A1C1F" fill-rule="evenodd" d="M22.594 4.125C26.656 4.125 30 7.406 30 11.5c0 1.875-.656 3.781-2.219 5.281L16.688 27.594a1.04 1.04 0 0 1-.72.281.97.97 0 0 1-.687-.281L4.156 16.78C2.688 15.375 2 13.438 2 11.563c0-4.157 3.375-7.438 7.375-7.438 1.906 0 3.813.75 5.25 2.188l1.344 1.343 1.344-1.343a7.45 7.45 0 0 1 5.28-2.188m-.063 2.031A5.27 5.27 0 0 0 18.75 7.72L16.688 9.78a1.04 1.04 0 0 1-.72.281.97.97 0 0 1-.687-.28L13.22 7.718c-1.031-1.032-2.406-1.563-3.844-1.563C6.406 6.156 4 8.563 4 11.594c0 1.375.5 2.75 1.563 3.781l10.406 10.094 10.406-10.094c1.094-1.062 1.594-2.437 1.594-3.812 0-3.032-2.469-5.407-5.438-5.407" clip-rule="evenodd"/></g><defs><clipPath id="a"><path fill="#fff" d="M0 0h32v32H0z"/></clipPath></defs></svg>
